src/assets/logo/pbs.svg

<?xml version="1.0" encoding="UTF-8" standalone="no"?><!DOCTYPE svg PUBLIC "-//W3C//DTD SVG 1.1//EN" "http://www.w3.org/Graphics/SVG/1.1/DTD/svg11.dtd"><svg width="100%" height="100%" viewBox="0 0 540 200" version="1.1" xmlns="http://www.w3.org/2000/svg" xmlns:xlink="http://www.w3.org/1999/xlink" xml:space="preserve" xmlns:serif="http://www.serif.com/" style="fill-rule:evenodd;clip-rule:evenodd;stroke-linejoin:round;stroke-miterlimit:1.41421;"><g id="pbs"><path id="path21" d="M101.609,94.47c4.391,0 7.953,-3.578 7.953,-7.969c0,-4.39 -3.562,-7.952 -7.953,-7.952c-4.39,0 -7.952,3.562 -7.952,7.952c0,4.391 3.562,7.969 7.952,7.969m-17.936,-38.929c-19.937,0 -36.333,13.921 -36.333,34.57c0,17.361 10.444,29.762 26.053,32.132l0,24.148l32.465,0l0,-23.214l4.511,0c5.262,-0.512 8.829,-3.995 8.882,-8.876l0,-13.425l8.849,0l-20.126,-45.335l-24.301,0Zm62.506,45.335l8.845,0l-19.858,-45.335l-13.119,0l19.937,45.335l-9.087,0l0,12.016c0.026,7.303 -3.018,10.417 -12.923,10.28l0,23.213l12.997,0l0,-23.213l4.259,0c3.773,0.11 8.886,-2.961 8.949,-8.913l0,-13.383Zm-126.179,-0.876c0,-44.179 35.821,-80 80,-80c44.179,0 79.995,35.821 79.995,80c0,44.179 -35.816,80 -79.995,80c-44.179,0 -80,-35.821 -80,-80" style="fill:#a0a0a0;fill-rule:nonzero;"/><g><path d="M225.257,96.698l0,-34.372l19.626,0c2.896,0 5.684,0.214 8.366,0.642c2.681,0.429 5.04,1.259 7.078,2.49c2.038,1.231 3.673,2.971 4.907,5.22c1.233,2.249 1.85,5.193 1.85,8.834c0,3.641 -0.617,6.585 -1.85,8.834c-1.234,2.249 -2.869,3.989 -4.907,5.22c-2.038,1.231 -4.397,2.061 -7.078,2.49c-2.682,0.428 -5.47,0.642 -8.366,0.642l-19.626,0Zm-25.257,-53.967l0,114.681l25.257,0l0,-41.119l26.544,0c7.185,0 13.298,-1.044 18.339,-3.132c5.041,-2.088 9.143,-4.845 12.307,-8.271c3.164,-3.427 5.469,-7.362 6.917,-11.806c1.448,-4.444 2.172,-8.968 2.172,-13.572c0,-4.711 -0.724,-9.262 -2.172,-13.653c-1.448,-4.39 -3.753,-8.298 -6.917,-11.725c-3.164,-3.426 -7.266,-6.183 -12.307,-8.271c-5.041,-2.088 -11.154,-3.132 -18.339,-3.132l-51.801,0Z" style="fill:#a0a0a0;fill-rule:nonzero;"/><path d="M332.558,89.149l0,-26.823l23.649,0c2.252,0 4.424,0.187 6.515,0.562c2.091,0.375 3.941,1.044 5.55,2.008c1.609,0.963 2.896,2.302 3.861,4.015c0.965,1.713 1.448,3.909 1.448,6.586c0,4.818 -1.448,8.298 -4.344,10.44c-2.896,2.141 -6.596,3.212 -11.1,3.212l-25.579,0Zm-25.256,-46.418l0,114.681l55.661,0c5.148,0 10.162,-0.643 15.042,-1.928c4.879,-1.285 9.223,-3.266 13.03,-5.943c3.808,-2.677 6.837,-6.13 9.09,-10.36c2.252,-4.229 3.378,-9.235 3.378,-15.017c0,-7.175 -1.743,-13.305 -5.228,-18.391c-3.486,-5.086 -8.768,-8.647 -15.846,-10.681c5.148,-2.463 9.035,-5.622 11.663,-9.477c2.627,-3.854 3.941,-8.673 3.941,-14.455c0,-5.354 -0.885,-9.851 -2.654,-13.492c-1.77,-3.641 -4.263,-6.559 -7.481,-8.754c-3.217,-2.195 -7.078,-3.774 -11.582,-4.738c-4.505,-0.964 -9.492,-1.445 -14.962,-1.445l-54.052,0Zm25.256,95.085l0,-31.481l27.509,0c5.47,0 9.867,1.258 13.192,3.775c3.325,2.516 4.987,6.719 4.987,12.608c0,2.998 -0.509,5.461 -1.528,7.389c-1.019,1.927 -2.387,3.453 -4.103,4.577c-1.716,1.125 -3.7,1.928 -5.952,2.409c-2.252,0.482 -4.611,0.723 -7.078,0.723l-27.027,0Z" style="fill:#a0a0a0;fill-rule:nonzero;"/><path d="M437.769,119.345l-24.453,0c-0.107,7.067 1.18,13.171 3.861,18.311c2.681,5.139 6.301,9.369 10.859,12.688c4.558,3.32 9.813,5.756 15.765,7.309c5.953,1.552 12.092,2.328 18.42,2.328c7.829,0 14.72,-0.91 20.672,-2.73c5.952,-1.82 10.939,-4.363 14.961,-7.629c4.022,-3.266 7.052,-7.148 9.089,-11.645c2.038,-4.497 3.057,-9.37 3.057,-14.616c0,-6.425 -1.367,-11.699 -4.102,-15.821c-2.735,-4.123 -5.979,-7.415 -9.733,-9.878c-3.754,-2.463 -7.534,-4.257 -11.341,-5.381c-3.808,-1.124 -6.784,-1.901 -8.929,-2.329c-7.185,-1.82 -13.004,-3.319 -17.454,-4.497c-4.451,-1.178 -7.937,-2.356 -10.457,-3.534c-2.52,-1.178 -4.21,-2.463 -5.068,-3.855c-0.858,-1.392 -1.287,-3.212 -1.287,-5.461c0,-2.462 0.537,-4.497 1.609,-6.103c1.073,-1.606 2.44,-2.945 4.102,-4.016c1.663,-1.07 3.513,-1.82 5.551,-2.248c2.037,-0.428 4.075,-0.643 6.113,-0.643c3.11,0 5.979,0.268 8.606,0.803c2.628,0.536 4.96,1.446 6.998,2.731c2.038,1.285 3.673,3.052 4.907,5.3c1.233,2.249 1.957,5.087 2.172,8.513l24.452,0c0,-6.639 -1.26,-12.287 -3.78,-16.945c-2.521,-4.658 -5.926,-8.486 -10.216,-11.484c-4.29,-2.998 -9.196,-5.167 -14.72,-6.505c-5.523,-1.339 -11.287,-2.008 -17.293,-2.008c-5.148,0 -10.296,0.696 -15.444,2.088c-5.148,1.392 -9.76,3.534 -13.835,6.425c-4.075,2.891 -7.373,6.505 -9.894,10.841c-2.52,4.337 -3.78,9.45 -3.78,15.339c0,5.247 0.992,9.718 2.976,13.412c1.984,3.694 4.585,6.773 7.802,9.236c3.218,2.462 6.864,4.47 10.94,6.023c4.075,1.552 8.258,2.864 12.548,3.935c4.182,1.178 8.311,2.249 12.387,3.212c4.075,0.964 7.722,2.088 10.939,3.373c3.218,1.285 5.818,2.891 7.802,4.819c1.984,1.927 2.976,4.443 2.976,7.549c0,2.891 -0.75,5.273 -2.252,7.147c-1.501,1.874 -3.378,3.346 -5.63,4.417c-2.252,1.071 -4.666,1.794 -7.239,2.169c-2.574,0.374 -4.987,0.562 -7.24,0.562c-3.324,0 -6.542,-0.402 -9.652,-1.205c-3.11,-0.803 -5.818,-2.034 -8.124,-3.694c-2.306,-1.66 -4.156,-3.828 -5.55,-6.505c-1.394,-2.677 -2.091,-5.943 -2.091,-9.798Z" style="fill:#a0a0a0;fill-rule:nonzero;"/></g></g></svg>

<?xml version="1.0" encoding="UTF-8" standalone="no"?>
<!DOCTYPE svg PUBLIC "-//W3C//DTD SVG 1.1//EN" "http://www.w3.org/Graphics/SVG/1.1/DTD/svg11.dtd">
<svg width="100%" height="100%" viewBox="0 0 540 200" version="1.1" xmlns="http://www.w3.org/2000/svg" xmlns:xlink="http://www.w3.org/1999/xlink" xml:space="preserve" xmlns:serif="http://www.serif.com/" style="fill-rule:evenodd;clip-rule:evenodd;stroke-linejoin:round;stroke-miterlimit:2;">
    <g id="pbs">
        <path id="path21" d="M101.609,94.47C106,94.47 109.562,90.892 109.562,86.501C109.562,82.111 106,78.549 101.609,78.549C97.219,78.549 93.657,82.111 93.657,86.501C93.657,90.892 97.219,94.47 101.609,94.47M83.673,55.541C63.736,55.541 47.34,69.462 47.34,90.111C47.34,107.472 57.784,119.873 73.393,122.243L73.393,146.391L105.858,146.391L105.858,123.177L110.369,123.177C115.631,122.665 119.198,119.182 119.251,114.301L119.251,100.876L128.1,100.876L107.974,55.541L83.673,55.541ZM146.179,100.876L155.024,100.876L135.166,55.541L122.047,55.541L141.984,100.876L132.897,100.876L132.897,112.892C132.923,120.195 129.879,123.309 119.974,123.172L119.974,146.385L132.971,146.385L132.971,123.172L137.23,123.172C141.003,123.282 146.116,120.211 146.179,114.259L146.179,100.876ZM20,100C20,55.821 55.821,20 100,20C144.179,20 179.995,55.821 179.995,100C179.995,144.179 144.179,180 100,180C55.821,180 20,144.179 20,100" style="fill:rgb(208,208,208);fill-rule:nonzero;"/>
        <g>
            <path d="M225.257,96.698L225.257,62.326L244.883,62.326C247.779,62.326 250.567,62.54 253.249,62.968C255.93,63.397 258.289,64.227 260.327,65.458C262.365,66.689 264,68.429 265.234,70.678C266.467,72.927 267.084,75.871 267.084,79.512C267.084,83.153 266.467,86.097 265.234,88.346C264,90.595 262.365,92.335 260.327,93.566C258.289,94.797 255.93,95.627 253.249,96.056C250.567,96.484 247.779,96.698 244.883,96.698L225.257,96.698ZM200,42.731L200,157.412L225.257,157.412L225.257,116.293L251.801,116.293C258.986,116.293 265.099,115.249 270.14,113.161C275.181,111.073 279.283,108.316 282.447,104.89C285.611,101.463 287.916,97.528 289.364,93.084C290.812,88.64 291.536,84.116 291.536,79.512C291.536,74.801 290.812,70.25 289.364,65.859C287.916,61.469 285.611,57.561 282.447,54.134C279.283,50.708 275.181,47.951 270.14,45.863C265.099,43.775 258.986,42.731 251.801,42.731L200,42.731Z" style="fill:rgb(208,208,208);fill-rule:nonzero;"/>
            <path d="M332.558,89.149L332.558,62.326L356.207,62.326C358.459,62.326 360.631,62.513 362.722,62.888C364.813,63.263 366.663,63.932 368.272,64.896C369.881,65.859 371.168,67.198 372.133,68.911C373.098,70.624 373.581,72.82 373.581,75.497C373.581,80.315 372.133,83.795 369.237,85.937C366.341,88.078 362.641,89.149 358.137,89.149L332.558,89.149ZM307.302,42.731L307.302,157.412L362.963,157.412C368.111,157.412 373.125,156.769 378.005,155.484C382.884,154.199 387.228,152.218 391.035,149.541C394.843,146.864 397.872,143.411 400.125,139.181C402.377,134.952 403.503,129.946 403.503,124.164C403.503,116.989 401.76,110.859 398.275,105.773C394.789,100.687 389.507,97.126 382.429,95.092C387.577,92.629 391.464,89.47 394.092,85.615C396.719,81.761 398.033,76.942 398.033,71.16C398.033,65.806 397.148,61.309 395.379,57.668C393.609,54.027 391.116,51.109 387.898,48.914C384.681,46.719 380.82,45.14 376.316,44.176C371.811,43.212 366.824,42.731 361.354,42.731L307.302,42.731ZM332.558,137.816L332.558,106.335L360.067,106.335C365.537,106.335 369.934,107.593 373.259,110.11C376.584,112.626 378.246,116.829 378.246,122.718C378.246,125.716 377.737,128.179 376.718,130.107C375.699,132.034 374.331,133.56 372.615,134.684C370.899,135.809 368.915,136.612 366.663,137.093C364.411,137.575 362.052,137.816 359.585,137.816L332.558,137.816Z" style="fill:rgb(208,208,208);fill-rule:nonzero;"/>
            <path d="M437.769,119.345L413.316,119.345C413.209,126.412 414.496,132.516 417.177,137.656C419.858,142.795 423.478,147.025 428.036,150.344C432.594,153.664 437.849,156.1 443.801,157.653C449.754,159.205 455.893,159.981 462.221,159.981C470.05,159.981 476.941,159.071 482.893,157.251C488.845,155.431 493.832,152.888 497.854,149.622C501.876,146.356 504.906,142.474 506.943,137.977C508.981,133.48 510,128.607 510,123.361C510,116.936 508.633,111.662 505.898,107.54C503.163,103.417 499.919,100.125 496.165,97.662C492.411,95.199 488.631,93.405 484.824,92.281C481.016,91.157 478.04,90.38 475.895,89.952C468.71,88.132 462.891,86.633 458.441,85.455C453.99,84.277 450.504,83.099 447.984,81.921C445.464,80.743 443.774,79.458 442.916,78.066C442.058,76.674 441.629,74.854 441.629,72.605C441.629,70.143 442.166,68.108 443.238,66.502C444.311,64.896 445.678,63.557 447.34,62.486C449.003,61.416 450.853,60.666 452.891,60.238C454.928,59.81 456.966,59.595 459.004,59.595C462.114,59.595 464.983,59.863 467.61,60.398C470.238,60.934 472.57,61.844 474.608,63.129C476.646,64.414 478.281,66.181 479.515,68.429C480.748,70.678 481.472,73.516 481.687,76.942L506.139,76.942C506.139,70.303 504.879,64.655 502.359,59.997C499.838,55.339 496.433,51.511 492.143,48.513C487.853,45.515 482.947,43.346 477.423,42.008C471.9,40.669 466.136,40 460.13,40C454.982,40 449.834,40.696 444.686,42.088C439.538,43.48 434.926,45.622 430.851,48.513C426.776,51.404 423.478,55.018 420.957,59.354C418.437,63.691 417.177,68.804 417.177,74.693C417.177,79.94 418.169,84.411 420.153,88.105C422.137,91.799 424.738,94.878 427.955,97.341C431.173,99.803 434.819,101.811 438.895,103.364C442.97,104.916 447.153,106.228 451.443,107.299C455.625,108.477 459.754,109.548 463.83,110.511C467.905,111.475 471.552,112.599 474.769,113.884C477.987,115.169 480.587,116.775 482.571,118.703C484.555,120.63 485.547,123.146 485.547,126.252C485.547,129.143 484.797,131.525 483.295,133.399C481.794,135.273 479.917,136.745 477.665,137.816C475.413,138.887 472.999,139.61 470.426,139.985C467.852,140.359 465.439,140.547 463.186,140.547C459.862,140.547 456.644,140.145 453.534,139.342C450.424,138.539 447.716,137.308 445.41,135.648C443.104,133.988 441.254,131.82 439.86,129.143C438.466,126.466 437.769,123.2 437.769,119.345Z" style="fill:rgb(208,208,208);fill-rule:nonzero;"/>
        </g>
    </g>
</svg>
